X:1
T:Beautiful Morning
T:Lucy Jane Rider Meyer, 1879
T:Beautiful Morning
T:Public Domain
T:Public Domain
C:Lucy Jane Rider Meyer, 1879
Z:Public Domain
%%score ( 1 2 ) 3
L:1/8
M:6/8
K:G
V:1 treble 
V:2 treble 
V:3 bass 
V:1
 [DB][CA][B,G] [B,D]2 B, | [B,D]2 [DG] [DB]3 | [DA][D^G][DA] [=GB]2 [FA] | G3- G2 z | %4
w: 1.~Beau- ti- ful morn- ing!|of hope, Dawn|of a bet- ter life;|Now *|
w: 2.~Beau- ti- ful morn- ing!|the week Wait-|eth thy wel- come light,|Since *|
w: 3.~Beau- ti- ful morn- ing!|and pain, Weep-|ing be- fore the tomb,|Fly *|
 [DB][CA][B,G] [B,D]2 B, | [B,D]2 [DG] [DB]3 | [DA][D^G][DA] [=GB]2 [FA] | G3- G2 z || %8
w: thy peace- ful hours we|Far from earth’s|noise and strife. * *||
w: first dawn- ing, calm and|Out of the|dark- est night. Morn- ing|of *|
w: thy dawn- ing, Je- sus|Je- sus dis-|pelled the gloom. * *||
"^Refrain" [Gd][G^c][Gd] [Ge]2 [Gd] | [Gd]2 [Gc] [GB]3 | [FA][F^G][FA] [=GB]2 [GA] | %11
w: |||
w: ur- rect- ion joy, Day|when the Sav-|ior rose, Sing- ing shall|
w: |||
 ([F-A]3 [Fd]3) | [Gd][G^c][Gd] [Ge]2 [Gd] | [Gd]2 [Gc] [GB]3 | [FA][F^G][FA] [=GB]2 [FA] | %15
w: ||||
w: greet *|thy open- ing hour, Sing-|ing shall mark|thy close. * * *|
w: ||||
 G3- G2 z |] %16
w: |
w: |
w: |
V:2
 x5 B, | x6 | x6 | G3- G2 x | x5 B, | x6 | x6 | G3- G2 x || x6 | x6 | x6 | x6 | x6 | x6 | x6 | %15
w: Day|||in *|rest,|||||||||||
w: All|||thy *|clear,|||res- *||||||||
w: Grief|||at *|rose,|||||||||||
 G3- G2 x |] %16
w: |
w: |
w: |
V:3
 [G,,G,][G,,G,][G,,G,] [G,,G,]2 [G,,D,] | [G,,G,]2 [G,,B,] [G,,D]3 | %2
 [D,C][D,B,][D,C] [D,D]2 [D,C] | [G,,B,]3- [G,,B,]2 z | [G,,G,][G,,G,][G,,G,] [G,,G,]2 [G,,D,] | %5
 [G,,G,]2 [G,,B,] [G,,D]3 | [D,C][D,B,][D,C] [D,D]2 [D,C] | [G,B,]3- [G,B,]2 z || %8
 [G,B,][G,^A,][G,B,] [G,C]2 [G,B,] | [G,B,]2 [G,E] [G,D]3 | [D,C][D,B,][D,C] [A,,^C]2 [A,,C] | %11
 [D,C]3- [D,C]3 | [G,B,][G,^A,][G,B,] [G,C]2 [G,B,] | [G,B,]2 [G,E] [G,D]3 | %14
 [D,C][D,B,][D,C] [D,D]2 [D,C] | [G,,B,]3- [G,,B,]2 z |] %16

